icons-common/lock.svg

<svg height="1em" width="auto" viewBox="0 0 105 105" fill="currentColor" xmlns="http://www.w3.org/2000/svg">
    <path fill-rule="evenodd" clip-rule="evenodd"
          d="M59.618 54.4395C59.618 57.9839 56.4959 60.8611 52.6703 60.6943C49.2844 60.5692 46.5141 57.9005 46.3822 54.6897C46.2943 52.1878 47.7454 49.9778 49.9 48.8937V45.3076C49.9 43.7231 51.2192 42.3053 52.8902 42.2636C54.6491 42.2219 56.1002 43.5563 56.1002 45.1825V48.8937C58.2109 49.9361 59.618 52.021 59.618 54.4395Z"
          />
    <path d="M62.74 79H43.26C32.6626 79 24 70.8271 24 60.7362V42.2638C24 32.1729 32.6187 24 43.26 24H62.7839C73.3813 24 82.044 32.1729 82.044 42.2638V60.7779C82.044 70.8271 73.4253 79.0417 62.7839 79.0417L62.74 79ZM43.26 31.2972C36.884 31.2972 31.7392 36.2176 31.7392 42.2221V60.7362C31.7392 66.7824 36.928 71.6611 43.26 71.6611H62.7839C69.16 71.6611 74.3048 66.7407 74.3048 60.7362V42.2638C74.3048 36.2176 69.116 31.3389 62.7839 31.3389H43.26V31.2972Z"
          />
</svg>

<svg xmlns="http://www.w3.org/2000/svg" width="auto" height="1em" fill="currentColor" viewBox="0 0 105 105">
    <path fill-rule="evenodd" d="M59.618 54.44c0 3.544-3.122 6.421-6.948 6.254-3.386-.125-6.156-2.794-6.288-6.004-.088-2.502 1.363-4.712 3.518-5.796v-3.586c0-1.585 1.32-3.003 2.99-3.044 1.76-.042 3.21 1.292 3.21 2.918v3.712c2.11 1.042 3.518 3.127 3.518 5.546" clip-rule="evenodd"/>
    <path d="M62.74 79H43.26C32.663 79 24 70.827 24 60.736V42.264C24 32.173 32.619 24 43.26 24h19.524c10.597 0 19.26 8.173 19.26 18.264v18.514c0 10.05-8.619 18.264-19.26 18.264zM43.26 31.297c-6.376 0-11.52 4.92-11.52 10.925v18.514c0 6.046 5.188 10.925 11.52 10.925h19.524c6.376 0 11.52-4.92 11.52-10.925V42.264c0-6.046-5.188-10.925-11.52-10.925H43.26z"/>
</svg>
